X: 3
T: The Dear Irish Boy
R: waltz
M: 3/4
L: 1/8
K: Ador
|:AB|c2 B3 A|B e3 dB|A2 B3 A|G4 AB|c2 B2 A2|
B e3 dB|B2 BA G2|A4 AB|c2 B3 A|
B e3 dB|A2 B3 A|G4 AB|c2 d3e|a2 b2 a/g/e/d/|
Bc3 de|A2 AB/A/ G2| A4 ||
|:a2 e4 |a2 e3A |Bg3 g2 |B3A G2|a2 e4|a2 e3d|
ea3 bg|a4 ab|c'3 b a2|ge3 dc| Bg3 B2|AG3 AB|
c3d e2|a2 b2 a/g/e/d/ |Bc3 de|A2 AB/A/ G2| A4 AB|
c3d e2|a2 b2 a/g/e/d/ |Bc3 de|A2 AB/A/ G2| A4||


Tune 6623	Setting 18289

